X:1
T:- # -
%%score [ 1 2 3 4 ]
L:1/8
M:none
K:F
V:1 treble nm="Sopran" snm=" "
V:2 treble-8 nm="Alt"
V:3 treble-8 nm="Tenor"
V:4 bass nm="Baß"
V:1
"^Christobal de Morales" z8 | z8 | d6 G2 | A3 B"^X.  Victime paschali laudes" c2 G2 | %4
w: ||Vic- ti-|mae * * pas-|
"^5" BABc d4- | d4"^1546" G4 | z2 d4 d2 | c2 d2 A2 A2 | B2 G4 F2 |"^10" z2 _E4 D2 | G6 G2 | %11
w: cha * \- * \-|\- li|lau- des|im- mo- lent Chri-|sti- a- ni,|lau- des|~im- mo-|
 A2 G2 G2 B2- | BA G4 ^F2 | G4 z2 d2- |"^15" dc B3 A G2 | F2 G2 A2 B2- | B2 G4 G2 | z2 G2 G4 | %18
w: \-lent Chri- sti- a|\- * \- \-|~ni. Ag|\- * \- * \-|nus red- e- mit|* o- ves,|red- e-|
 F4 F4 |"^20" D2 d2 c2 d2- | dc B4 A2 | B4 z4 | z8 | z4 A4- |"^25" A8 | G6 B2- | B2 A3 B c2 | %27
w: mit o-|~ves, Chri- stus in|\- * * no-|\-cens||pa-||tri re-|* con * \-|
 G3 A B2 A2 | A3 G/F/ G4 |"^30" F4 A4- | A4 B4 | A4 G3 A | B2 A4 c2 | B2 G2 z2 A2 |"^35" c4 B4 | %35
w: ci \- * li-|a \- * *|vit pec-|* ca-|\-to- res, *|* pec- ca-|to- ~res. Mors|et vi-|
 A2 c2 B4 | A2 A2 B2 B2- | B2 A3 B c2- | c2 B2 G4 |"^40" c4 z2 A2- | A2 c4 G2 | A4 G4 | F4 A4 | %43
w: ta du- el-|\-lo con- fli- xe-|* re * *|* mi- ran-|do. Dux|* vi- tae|mor- tu-|us reg-|
 B4 A4- |"^45" A4 G3 F | E2 D2 G4 | A4 F2 F2 | A4 G2 c2 | c2 A3 B c2 |"^50" F2 B2 AGFE | %50
w: nat vi|\- * \-|vus, reg- nat|vi- vus, dux|vi- tae mor-|tu- us * *|reg- nat vi * \- *|
 D2 G4 ^F2 | G8 |[M:4/4]"^Secunda pars" z8 | z8 | z8 | F8- | F8 | A8 | G4 A4 |"^60" F4 G3 A | %60
w: \- * \-|~~vus.||||Sur-||re-|\-xit Chri-|stus, spes *|
 B4 A4- | A4 G4 | z2 G2 c2 A2 | B2 c4 B2 |"^65" G4 A2 B2- | B2 A2 z2 G2 | c2 d4 c2 | B4 A2 A2- | %68
w: * no-|* stra.|Prae- ce- det|su- os in|Ga- li- lae-|* am. Cre-|den- dum est|ma- gis so-|
 A2 A2 c2 B2- |"^70" BA G2 F2 A2- | AG/F/ G2 A4 | F4 z4 | z2 D4 A2 | A2 A4 G2- |"^75" G2 d2 d2 d2 | %75
w: * li Ma- *|* * ri- ae ve-|* * * * ra-|ci,|quam Iu-|dae- o- rum|* tur- bae fal-|
 c6 G2 | z2 B2 F2 F2 | A4 E2 E2 | F2 G2 G2 F2- |"^80" F2 E3 F G2 | D3 E F2 D2 | F4 E4 | %82
w: \-la- ci,|tur- bae fal-|la- ci, quam|Iu- dae- o- rum|* tur- * *|\-bae * * fal-|la- ~ci.|
 z2 G2 F2 B2- | B2 A2 d3 c |"^85" BA G2 c2 B2- | BA G2 F4 | z2 F2 G2 A2 | F8 | B4 A2 A2 | %89
w: Sci- mus Chri-|* stum sur- *|* * * re *|* * xis- se|a mor- tu-|is|ve- ~re, a|
"^90" F3 E D2 D2 | F2 F3 E A2- | AG G4 ^F2 | G2 D2 _E2 D2 | G4 F2 F2 |"^95" E2 E2 F4 | F4 z4 | %96
w: mo- * * tu-|\-is ve * *||re. Tu no- bis|vic- tor rex|mi- se- re-|re,|
 z2 G2 B2 A2 | c4 d2 d2- | d2 c2 B2 A2- |"^100" AG G4 ^F2 | G8- | G8 |] %102
w: tu no- bis|vic- tor rex|* mi- * se-|* * re- *|re.||
V:2
 z8 | z4 d4- | d2 G2 d3 e | f2 c2 _e4 | d4 z2 d2- | d2 f2 _e2 e2 | d2 f2 g2 d2 | e2 f4 d2- | %8
w: |Vic-|* ti- mae *|* pas- cha-|li lau|\- des im- mo-|\-lent, lau- des im-|mo- lent Chri|
 d2 c2 B2 A2- | A2 G3 ABc | d2 _e2 e2 e2 | c2 e4 d2 | B3 c d4 | B8 | z4 d4- | d4 f4 | %16
w: \- sti- a- ni,|* lau * \- *|\- des im- mo-|\-lent Chri- sti-|a- * \-|~ni.|Ag|\- nus|
 g3 f _ed e2- | e2 d4 c2 | d8 | d4 z4 | d4 c2 d2- | dc B4 A2 | B2 d2 d2 e2 | f2 d4 c2 | f4 f2 c2 | %25
w: red * \- * \-|\- e- mit|o-|~ves,|Chri- stus in-|\- * \- no-|cens pa- tri re-|con- ci- li-|a- vit pec-|
 _e4 d4- | d4 c4 | z8 | A4 c4 | d4 A4 | z2 f2 d2 de | fg f4 e2 | f8 | d4 f4 | _e4 d4 | z2 g2 g4 | %36
w: ca- to-|* ~res.||Mors et|vi- ta,|mors et vi \-|\- * * \-|ta,|mors et|vi- ta|du- el-|
 e4 g2 d2 | f4 f2 e2 | g3 f _e2 d2 | z2 c2 f4 | c4 _e2 e2 | c2 f2 e2 d2 | c2 d2 c2 f2- | f2 f2 f4 | %44
w: \-lo con- fli-|xe- re mi-|ran \- * do.|Dux vi-|tae mor- tu-|\-us, dux vi- tae|mor- tu- us reg|\- nat vi-|
 c3 d e2 e2 | g4 d4 | e4 d4 | c4 e4 | f4 e4 | d8- | d8- | d8 |[M:4/4] z4 B4- | B4 d4- | d4 c4 | %55
w: vus, * * dux|vi- tae|mor- tu-|us reg-|nat vi-|~vus.|||Sur-|* re-|* xit|
 d4 B4 | A4 d3 e | fe f2 c2 f2- | fe/d/ e2 f2 c2 | d4 B4 | f4 f4 | f3 e d2 g2 | a2 d2 e2 f2 | %63
w: Chri- stus,|sur- re- *|* * * xit Chri-|* * * * stus, spes|no- *|stra. Prae-|ce- * det su-|* os in Ga-|
 d2 g2 a2 d2 | e2 d2 f4 | f3 g a2 e2 | f2 d2 f2 e2 | z2 g2 f3 e | d2 c2 _e2 d2- | dc B2 A2 f2- | %70
w: \-li- lae- am, prae-|ce- det su-|os * * in|Ga- li- lae- am.|Cre- den- *|* dum est ma-|* * * gis so-|
 f2 d2 e2 f2- | f2 d4 c2 | B4 A4- | A4 z4 | d4 f2 f2 | f2 c2 e4 | B2 B2 d4 | A8 | z2 G2 B2 B2 | %79
w: * li Ma- ri-|* ae ve-|ra- ci,||quam Iu- dae-|\-o- rum tur-|bae fal- la-|~ci,|quam Iu- dae-|
 A2 A2 c2 G2- | GABc d2 f2- | f2 d3 ^c/=B/ c2 | d4 d4 | f8 | g8 | d4 d4- | d4 c4 | d4 d4 | %88
w: o- rum tur *|* * * * bae fal-|* la- * * *|ci. Sci-|mus|Chri-|\-stum sur-|* re-|xis- se|
 z2 d2 f3 e | d2 c2 B4- | B4 A4 | d8- | d4 z2 A2 | B2 c2 d4 | G4 B4 | A2 A2 f4 | c2 c2 d2 d2 | %97
w: a mor- *|* tu- is|* ve-|re.|* Tu|no- bis vic-|~tor rex|mi- se- re-|re, tu no- bis|
 _e4 d2 d2 | a2 a2 f4 | d4 d4 | B2 B2 _e4 | d8 |] %102
w: vic- tor rex|mi- se- re-|re, rex|mi- se- re-|~re.|
V:3
 z8 | z8 | G8 | F4 G4- | G4 B4- | B4 c4 | B4 z4 | A8 | G4 d4 | c4 B4- | B4 c4- | c4 B4 | G4 A4 | %13
w: ||Vic-|ti~- mae|* pas|\- cha-|\-li~~|lau-|des im-|mo- lent|* Chri-|\- sti-|a \-|
 G8- | G8 | z2 B2 c2 d2 | B4 c4 | B6 AG | B2 A2 Bcde | f4 f4- | f2 f2 e2 f2 | B2 d4 c2 | f4 g4 | %23
w: ~ni.||Ag- nus red-|\-e~~- mit|o \- *|\- * * \- * *|~ves, Chri-|* stus in- no-|\-cens pa- tri|re- con-|
 d3 e f2 e2 | d4 c2 A2 | c2 B3 cde | f2 F2 z2 A2 | B2 c2 F2 f2 | f2 f3 e/d/ e2 | A4 f3 e | %30
w: ci \- * li-|a- vit pec-|ca- to * \- *|\- ~res, pa-|tri re- con- ci-|li- a \- * \-|vit pec- ca-|
 d2 c2 B2 G2 | z2 A2 c4 | d4 c2 A2 | B4 A2 d2 | G2 G3 A B2 | c2 _e3 d d2- | d2 c2 d4 | d4 c4 | %38
w: to \- \- ~res.|Mors et|vi- ta du-|el- ~lo, mors|et vi \- *|ta du \- *|\- el- lo|con- fli-|
 d4 c2 B2 | A8- | A4 G4 | z2 c2 c2 G2 | A2 B2 A2 c2 | d2 d4 c2 | z2 A2 c4 | G2 B3 c d2- | %46
w: xe- re mi-|ran-|* ~do.|Dux vi- tae|mor- tu- us reg-|nat vi- vus,|dux vi-|tae mor * \-|
 d2 c2 A2 A2- | A2 c4 G2 | A2 c2 c4 | z4 A4 | B4 A4 | G8 |[M:4/4] d8 | G3 A BA B2 | F2 B3 A/G/ A2 | %55
w: \- tu- us, dux|* vi- tae|mor- tu- us|reg-|nat vi-|~~vus.|Sur-|re- * * * *|xit Chri- stus, * Chri-|
 B2 B2 d4- | d2 d2 B4 | A2 (F3 GAB) | (c6 A2-) | A2 B2 z2 G2 | d6 c2 | d4 B2 c2- | c2 B2 A4 | %63
w: stus, Chri *||stus, spes * * *|* no-|* stra, sur-|re- xit|Chri- stus spes|* * no-|
 G4 z2 G2 | c2 B2 c2 d2- | d2 d2 c3 B | A2 B2 A4 | G4 z2 d2 | f4 g4 | d4 d4- | d4 c4 | d4 e2 e2 | %72
w: \-stra. Prae-|ce- det su- os|* in Ga- *|* li- lae-|am. Cre-|den- dum|est ma-|* gis|so- li Ma-|
 f8 | c8 | B4 A4- | A4 G4- | G2 G2 B2 A2 | c8 | d4 d4 | c8 | B4 A4- | A8 | G4 z4 | z4 z2 d2 | %84
w: ri-|ae|ve- ra-|* ci,|* quam Iu- dae-|o-|rum tur-|bae|fal- la-||ci.|Sci-|
 d2 _e4 d2 | B3 c d2 B2 | B2 A2 z2 A2- | A2 B3 c d2- | d2 B2 c2 d2 | A2 A2 f3 e | d6 c2 | B4 A4 | %92
w: mus Chri- stum|sur- * * re-|xis- se a|* mor- * *|* tu- is ve-|re, a mor- *|* tu-|is ve-|
 G4 z4 | z2 G2 B2 A2 | c4 d2 d2- | d2 c2 B2 A2- | A2 G4 F2 | G2 G2 B2 B2 | A4 d4 | B4 A2 A2 | %100
w: ~re.|Tu no- bis|vic- tor rex|* mi- se- re-||~re, tu no- bis|vic- tor|rex mi- se-|
 G4 c4 | =B8 |] %102
w: re- *|~re.|
V:4
 G,8 | F,4 G,4 | B,8 | C4 C,4 | z8 | z8 | z8 | z2 D,4 F,2 | _E,2 E,2 D,3 =E, | F,2 C,2 z2 G,2- | %10
w: Vic-|ti- mae|pas-|cha- li||||lau- des|im- mo- lent, *|* * lau|
 G,F,_E,D, C,2 C,2 | F,2 C,2 G,2 G,2- | G,2 _E,2 D,4 | D8 | z2 D3 C B,2- | B,A, G,2 F,2 D,2 | %16
w: \- * * * \- des|im- mo- lent Chri|\- sti- a-|~ni.|Ag * \-|\- * \- nus red-|
 _E,6 C,2 | G,3 F, _E,4 | %18
w: \-e~- mit|o \- *|
 D,4"^© Michael Wendel 2005\nThis edition may be freely duplicated, distributed, performed or recorded for non-profit performance or use.\n" z2 B,2- | %19
w: ves, Chri-|
 B,2 B,2 A,2 B,2 | B,4 z4 | G,4 F,2 F,2 | B,,2 B,3 G, C2- | C2 B,2 A,4 | D,2 D,2 F,2 F,2 | %25
w: \- stus in- no-|cens|pa- tri re-|con- ci- li- a|\- * *|vit, re- con- ci-|
 C,2 G,4 G,2 | D,4 F,4 | _E,4 D,4- | D,4 z4 | D,8 | F,4 G,4 | D,4 z4 | D,4 F,4 | G,4 D,4 | %34
w: li- a- vit|pec- ca-|to- ~res.||Mors|et vi-|\-ta,|mors et|vi- ta|
 C,4 G,4 | F,2 C,2 G,4 | A,4 G,2 G,2 | D,3 E, F,G, A,2 | G,4 z2 G,2 | F,3 E, D,2 D,2 | F,4 C,4 | %41
w: du- el-|lo con- fli-|\-xe- re mi-|ran \- * * \-|do. Dux|vi \- * tae|mor- tu-|
 F,4 z4 | z2 D,2 F,4 | B,,3 C, D,2 F,2- | F,2 F,2 C,2 C,2 | C,2 G,3 A, B,2 | A,4 D,4 | F,4 C,4 | %48
w: \-us,|dux vi-|tae * * mor|\- tu- us reg-|nat vi- * \-|\-vus, dux|vi- tae|
 F,3 G, A,2 A,2 | B,2 G,2 F,2 D,2 | G,4 D,4 | G,8 |[M:4/4] G,8 | _E,4 D,2 B,,2- | B,,C,D,E, F,4 | %55
w: mor- * \- tu-|us reg- nat vi|\- *|~~vus.|Sur-|re- xit Chri||
 B,,2 B,,2 B,,3 C, | D,2 D,2 z2 D,2 | D,3 E, F,4 | C,4 F,4 | D,2 B,,2 _E,4 | B,,3 C, D,E, F,2 | %61
w: stus, spes no *|* stra, spes|no- * *|||* * * * stra.|
 z2 D,2 G,2 E,2 | F,2 G,2 z2 D,2 | G,2 E,2 F,2 G,2 | z2 G,2 F,2 B,,2 | D,3 E, F,2 C,2 | z2 G,2 C4 | %67
w: Prae- ce- det|su- os, prae-|\-ce- det su- os|in Ga- li-|lae- * * ~am.|Cre- den-|
 D4 D,2 D,2- | D,E, F,2 C,2 G,2- | G,2 G,2 D,4 | B,4 A,2 F,2 | B,4 A,4 | z4 D,4 | F,2 F,2 F,2 E,2 | %74
w: dum est ma-|* * * gis so-|* li Ma-|ri- ae ve-|ra- ci,|quam|Iu- dae- o- rum|
 G,4 D,3 E, | F,2 F,2 C,3 D, | _E,4 D,4 | z2 F,2 A,2 C2 | B,3 A, G,2 D,2 | F,2 A,4 E,2 | G,4 D,4- | %81
w: tur- * *|\-bae fal- la *|* ci,|quam Iu- dae-|o- * rum fal-|la- * *|* ci.|
 D,4 z2 A,2 | B,2 B,4 G,2 | D3 C B,A, B,2 | G,2 C4 G,2 | G,4 B,3 A, | G,2 D,2 E,2 F,2 | %87
w: * Sci-|mus Chri- stum|sur- * * * *|re- xis- se|a mor- *|* tu- is ve-|
 D,2 B,,2 B,3 A, | G,2 G,2 F,2 D,2- | D,E, F,2 B,,4- | B,,4 z4 | z4 D,4 | B,3 A, G,2 F,2 | %93
w: re, a mor- *|tu- is ve *|* * * ~re,||a|mor- * * tu-|
 _E,4 D,4 | C,2 C,2 B,,2 B,,2 | F,4 D,2 D,2 | F,2 _E,2 D,4 | C,2 C,2 G,2 G,2 | F,4 D,4 | z4 D,4 | %100
w: is ve-|re. Tu no- bis|vic- tor rex|mi- se- re-|re, tu no- bis|vic- tor|rex|
 _E,2 E,2 C,4 | G,8 |] %102
w: mi- se- re-|~re.|

